X: 22049
T: Knockatallon Cross
R: jig
M: 6/8
K: Gmajor
|:gfe edc|BGF E3|gab abc'|bgf e2f|
gag gfe|dBG GAG|ABc Bcd|GED ~E3:|
|:Bcd ABc|Bcd ABc|Bcd eag|fd^c d3|
gab abc'|bab g2f|efe ede|BGF E3:|

